public/build/img/sistema/location.svg

<svg width="10" height="15" viewBox="0 0 10 15" fill="none" xmlns="http://www.w3.org/2000/svg">
<g clip-path="url(#clip0_158_43)">
<path d="M5.61719 14.625C6.95312 12.7441 10 8.18555 10 5.625C10 2.51953 7.76042 0 5 0C2.23958 0 0 2.51953 0 5.625C0 8.18555 3.04688 12.7441 4.38281 14.625C4.70312 15.0732 5.29687 15.0732 5.61719 14.625ZM5 3.75C5.44203 3.75 5.86595 3.94754 6.17851 4.29917C6.49107 4.65081 6.66667 5.12772 6.66667 5.625C6.66667 6.12228 6.49107 6.59919 6.17851 6.95083C5.86595 7.30246 5.44203 7.5 5 7.5C4.55797 7.5 4.13405 7.30246 3.82149 6.95083C3.50893 6.59919 3.33333 6.12228 3.33333 5.625C3.33333 5.12772 3.50893 4.65081 3.82149 4.29917C4.13405 3.94754 4.55797 3.75 5 3.75Z" fill="#0538A5"/>
</g>
<defs>
<clipPath id="clip0_158_43">
<rect width="10" height="15" fill="white"/>
</clipPath>
</defs>
</svg>

<svg width="10" height="15" fill="none" xmlns="http://www.w3.org/2000/svg"><g clip-path="url(#a)"><path d="M5.617 14.625c1.336-1.88 4.383-6.44 4.383-9C10 2.52 7.76 0 5 0S0 2.52 0 5.625c0 2.56 3.047 7.12 4.383 9 .32.448.914.448 1.234 0ZM5 3.75c.442 0 .866.198 1.179.55a2 2 0 0 1 .488 1.325 2 2 0 0 1-.488 1.326A1.582 1.582 0 0 1 5 7.5a1.58 1.58 0 0 1-1.179-.55 2 2 0 0 1-.488-1.325 2 2 0 0 1 .488-1.326A1.582 1.582 0 0 1 5 3.75Z" fill="#0538A5"/></g><defs><clipPath id="a"><path fill="#fff" d="M0 0h10v15H0z"/></clipPath></defs></svg>
